X:170
T:Royal Prince Frederick THO4.170, The
M:6/8
L:1/8
Z:vmp. Peter Dunk 2010/11.from a transcription by Fynn Titford-Mock 2007
B:Thompson's Compleat Collection of 200 Favourite Country Dances Volume IV.
Q:3/8=110
K:G
Bcd ded|dcB ABc|dBG F2 G|A3D3|Bcd ded|dcB ABc|dBG F2 G|G3G,3:|
G,B,D G,B,D|[E3C3][E3C3]|DFA DFA|[G3B3][G3B3]|\
G,B,D G,B,D|[E3C3][E2C2]B,|G,cB AGF|G3G,3:|
